!!!COM: des Prez, Josquin
!!!CDT: ~1450-1521/08/27
!!!COA: Brumel, Antoine
!!!OTL@@LAT: Ave Maria...benedicta tu
!!!AGN: Motet
!!!SCT: NJE 23.4
!!!SCA: New Josquin Edition 23.4
!!!voices: 4
**kern	**text	**kern	**text	**kern	**text	**kern	**text
*staff4	*	*staff3	*	*staff2	*	*staff1	*
*Ivox	*	*Ivox	*	*Ivox	*	*Ivox	*
*I"Bassus	*	*I"Tenor	*	*I"Altus	*	*I"Superius	*
*I'B	*	*I'T	*	*I'A	*	*I'S	*
*clefF4	*	*clefGv2	*	*clefGv2	*	*clefG2	*
*k[b-e-]	*	*k[b-]	*	*k[b-]	*	*k[b-]	*
*M2/1	*	*M2/1	*	*M2/1	*	*M2/1	*
*met(C|)	*	*met(C|)	*	*met(C|)	*	*met(C|)	*
=1-	=1-	=1-	=1-	=1-	=1-	=1-	=1-
0r	.	0B-	A-	0r	.	0r	.
=2	=2	=2	=2	=2	=2	=2	=2
0r	.	1F	-ve	0r	.	0r	.
.	.	1G	Ma-	.	.	.	.
=3	=3	=3	=3	=3	=3	=3	=3
0r	.	2G	-ri-	0r	.	0b-	A-
.	.	2A	.	.	.	.	.
.	.	2B-	.	.	.	.	.
.	.	2c	.	.	.	.	.
=4	=4	=4	=4	=4	=4	=4	=4
0r	.	1d	-a,	0r	.	1f	-ve
.	.	2.e-	gra-	.	.	1g	Ma-
.	.	4d	.	.	.	.	.
=5	=5	=5	=5	=5	=5	=5	=5
0r	.	2e-i	.	0r	.	2g	-ri-
.	.	2f	-ti-	.	.	2a	.
.	.	2.e-i	-a	.	.	2b-	.
.	.	.	.	.	.	2cc	.
.	.	8dL	.	.	.	.	.
.	.	8cJ	.	.	.	.	.
=6	=6	=6	=6	=6	=6	=6	=6
0r	.	2B-	.	0B-	A-	1dd	.
.	.	1f	ple-	.	.	.	.
.	.	.	.	.	.	2cc	.
.	.	2d	.	.	.	[2b-	.
=7	=7	=7	=7	=7	=7	=7	=7
0r	.	1c	.	1F	-ve	2b-]	.
.	.	.	.	.	.	2a	.
.	.	[1B-	.	1G	Ma-	1b-	-a,
=8	=8	=8	=8	=8	=8	=8	=8
0E-	A-	2B-]	.	2G	-ri-	0r	.
.	.	2A	.	2A	.	.	.
.	.	1G	.	2B-	.	.	.
.	.	.	.	2c	.	.	.
=9	=9	=9	=9	=9	=9	=9	=9
1BB-	-ve	1F	-na,	1d	-a	0r	.
1C	Ma-	1r	.	2.e-	gra-	.	.
.	.	.	.	4d	.	.	.
=10	=10	=10	=10	=10	=10	=10	=10
2C	-ri-	0r	.	2e-i	.	0r	.
2D	.	.	.	2f	-ti-	.	.
2E-	.	.	.	2g	-a	.	.
2F	.	.	.	[2a	ple-	.	.
=11	=11	=11	=11	=11	=11	=11	=11
2G	.	0r	.	4a]	.	1dd	gra-
.	.	.	.	4g	.	.	.
2B-	.	.	.	2.g	.	.	.
1A	.	.	.	.	.	1cc	-ti-
.	.	.	.	4f#i	.	.	.
.	.	.	.	4f#i	.	.	.
.	.	.	.	4e	.	.	.
=12	=12	=12	=12	=12	=12	=12	=12
1G	-a,	2r	.	1g	-na,	1b-	-a
.	.	2d	ple-	.	.	.	.
1r	.	2e	.	1r	.	1cc	ple-
.	.	2f	.	.	.	.	.
=13	=13	=13	=13	=13	=13	=13	=13
1r	.	1B-	-na,	2r	.	1dd	-na,
.	.	.	.	2.d	do-	.	.
2r	.	1r	.	.	.	1r	.
.	.	.	.	4c	.	.	.
[2d	do-	.	.	4B-	.	.	.
.	.	.	.	4A	.	.	.
=14	=14	=14	=14	=14	=14	=14	=14
4d]	.	0r	.	2.B-	-mi-	0r	.
4c	.	.	.	.	.	.	.
4B-	.	.	.	.	.	.	.
4A	.	.	.	4c	.	.	.
2B-	-mi-	.	.	2G	-nus	.	.
2c	-nus	.	.	[2A	te-	.	.
=15	=15	=15	=15	=15	=15	=15	=15
1G	te-	0r	.	4A]	.	0r	.
.	.	.	.	4G	.	.	.
.	.	.	.	1G	.	.	.
1A	.	.	.	.	.	.	.
.	.	.	.	2F#i	.	.	.
=16	=16	=16	=16	=16	=16	=16	=16
1G	-cum,	1r	.	1G	-cum,	2r	.
.	.	.	.	.	.	2.dd	do-
2r	.	2r	.	2r	.	.	.
.	.	.	.	.	.	4cc	.
2G	do-	[2d	do-	2g	do-	4b-	.
.	.	.	.	.	.	4a	.
=17	=17	=17	=17	=17	=17	=17	=17
2.G	-mi-	4d]	.	2.g	-mi-	2.b-	-mi-
.	.	4c	.	.	.	.	.
.	.	4B-	.	.	.	.	.
4A	.	4A	.	4f	.	4cc	.
2G	.	2B-	-mi-	2e	.	2g	-nus
2F	-nus	2c	-nus	2f	-nus	[2a	te-
=18	=18	=18	=18	=18	=18	=18	=18
1E-	te-	1G	te-	2B-	te-	4a]	.
.	.	.	.	.	.	4g	.
.	.	.	.	2c	.	1g	.
1D	-cum,	1A	.	2.d	.	.	.
.	.	.	.	.	.	2f#i	.
.	.	.	.	4c	.	.	.
=19	=19	=19	=19	=19	=19	=19	=19
1r	.	1G	-cum,	4B-	.	2g	-cum,
.	.	.	.	4A	.	.	.
.	.	.	.	2d	.	1b-	.
2r	.	2r	.	1G	.	.	.
2E-	be-	2c	be-	.	.	4a	.
.	.	.	.	.	.	4g	.
=20	=20	=20	=20	=20	=20	=20	=20
2D	-ne-	1d	.	1A	-cum,	1f	.
2.F	-dic-	.	.	.	.	.	.
.	.	2c	-ne-	1r	.	1r	.
4E-	.	.	.	.	.	.	.
4D	.	[2d	-dic-	.	.	.	.
4C	.	.	.	.	.	.	.
=21	=21	=21	=21	=21	=21	=21	=21
2BB-	.	4d]	.	1r	.	1r	.
.	.	4c	.	.	.	.	.
2D	.	1B-	.	.	.	.	.
1C	-ta	.	.	2r	.	2r	.
.	.	2A	-ta	2e-i	be-	2cc	be-
=22	=22	=22	=22	=22	=22	=22	=22
1BB-	tu	1B-	tu	2d	-ne-	1dd	.
.	.	.	.	2.f	-dic-	.	.
1r	.	1r	.	.	.	2cc	-ne-
.	.	.	.	4e-i	.	.	.
.	.	.	.	4d	.	[2dd	-dic-
.	.	.	.	4c	.	.	.
=23	=23	=23	=23	=23	=23	=23	=23
1r	.	0r	.	2B-	.	4dd]	.
.	.	.	.	.	.	4cc	.
.	.	.	.	2d	.	1b-	.
2r	.	.	.	1c	-ta	.	.
2F	in	.	.	.	.	2a	-ta
=24	=24	=24	=24	=24	=24	=24	=24
2.G	mu-	0r	.	1B-	tu	1b-	tu
4F	-li-	.	.	.	.	.	.
2G	-e-	.	.	2r	.	1r	.
2E-	-ri-	.	.	2c	in	.	.
=25	=25	=25	=25	=25	=25	=25	=25
0D	-bus,	0r	.	2.d	mu-	0r	.
.	.	.	.	4c	-li-	.	.
.	.	.	.	2d	-e-	.	.
.	.	.	.	2B-	-ri-	.	.
=26	=26	=26	=26	=26	=26	=26	=26
0r	.	0r	.	2A	-bus,	2r	.
.	.	.	.	2a	in	2cc	in
.	.	.	.	2f	mu-	2.dd	mu-
.	.	.	.	[2g	.	.	.
.	.	.	.	.	.	4cc	-li-
=27	=27	=27	=27	=27	=27	=27	=27
0r	.	0r	.	4g]	.	2dd	-e-
.	.	.	.	4f	.	.	.
.	.	.	.	4d	.	2b-	-ri-
.	.	.	.	4e	.	.	.
.	.	.	.	4f	.	4a	-bus,
.	.	.	.	4g	.	4b-	.
.	.	.	.	[2a	.	4cc	.
.	.	.	.	.	.	4dd	.
=28	=28	=28	=28	=28	=28	=28	=28
0r	.	2r	.	4a]	.	4ee	.
.	.	.	.	4g	.	4ff	.
.	.	2c	in	2e	.	2gg	.
.	.	2.d	mu-	2f	.	2ff	in
.	.	.	.	2g	-li-	[2ee	mu-
.	.	4c	-li-	.	.	.	.
=29	=29	=29	=29	=29	=29	=29	=29
1r	.	2d	-e-	1d	-e-	4ee]	.
.	.	.	.	.	.	4dd	-li-
.	.	2B-	-ri-	.	.	1dd	-e-
2r	.	1A	-bus,	1e	-ri-	.	.
2A	et	.	.	.	.	2cc#i	-ri-
=30	=30	=30	=30	=30	=30	=30	=30
2B-	be-	0r	.	1d	-bus,	1dd	-bus,
2B-	-ne-	.	.	.	.	.	.
1G	-dic-	.	.	2r	.	1r	.
.	.	.	.	2e	et	.	.
=31	=31	=31	=31	=31	=31	=31	=31
1F	-tus	0r	.	2f	be-	1r	.
.	.	.	.	2f	-ne-	.	.
2r	.	.	.	1d	-dic-	2r	.
2G	fruc-	.	.	.	.	2b-	et
=32	=32	=32	=32	=32	=32	=32	=32
2A	-tus	2r	.	1c	-tus	2cc	be-
2A	ven-	2e	et	.	.	2cc	-ne-
2F	-tris	2f	be-	2r	.	1a	-dic-
2F	tu-	2f	-ne-	2c	fruc-	.	.
=33	=33	=33	=33	=33	=33	=33	=33
1G	-i,	1d	-dic-	2B-	-tus	1g	-tus
.	.	.	.	2B-	ven-	.	.
1C	Je-	1c	-tus	2e-	-tris	2r	.
.	.	.	.	2e-i	tu-	2cc	fruc-
=34	=34	=34	=34	=34	=34	=34	=34
1D	-sus-	2r	.	1d	-i,	2b-	-tus
.	.	2F	fuc-	.	.	2a	ven-
1E-	Chris-	2G	-tus	2r	.	2g	-tris
.	.	2G	ven-	2c	Je-	2g	tu-
=35	=35	=35	=35	=35	=35	=35	=35
1D	-tus,	2A	-tris	1d	-sus	1f	-i,
.	.	2A	tu-	.	.	.	.
2r	.	1G	-i,	1e-i	Chris-	2r	.
2C	Je-	.	.	.	.	2cc	Je-
=36	=36	=36	=36	=36	=36	=36	=36
1D	-sus	2r	.	1d	-tus,	2a	-sus
.	.	2F	Je-	.	.	1b-	Chris-
1E-	Chris-	1G	-sus	2r	.	.	.
.	.	.	.	2c	fi-	4a	.
.	.	.	.	.	.	4g	.
=37	=37	=37	=37	=37	=37	=37	=37
1D	-tus	1A	Chris-	2d	-li-	1f	-tus,
.	.	.	.	2d	-us	.	.
2r	.	1G	-tus	1e-i	de-	2r	.
2C	fi-	.	.	.	.	2cc	fi-
=38	=38	=38	=38	=38	=38	=38	=38
1D	.	2r	.	1d	-i	2a	-li-
.	.	2F	fi-	.	.	1b-	-us
1E-	-li-	1G	-li-	2r	.	.	.
.	.	.	.	2c	fi-	4a	.
.	.	.	.	.	.	4g	.
=39	=39	=39	=39	=39	=39	=39	=39
1D	-us,	1A	-us	1d	.	1f	.
2r	.	2.G	de-	1e-i	-li-	2g	de-
[2G	de-	.	.	.	.	[2b-	-i
.	.	4A	.	.	.	.	.
=40	=40	=40	=40	=40	=40	=40	=40
2G]	.	2B-	-i	2d	-us	2b-]	.
1F	-i	1c	vi-	2.f	de-	2.a	vi-
.	.	.	.	4e-i	.	4g	.
[2G	vi-	2G	.	4d	.	[2b-	.
.	.	.	.	4c	.	.	.
=41	=41	=41	=41	=41	=41	=41	=41
2G]	.	2B-	.	2d	.	4b-]	.
.	.	.	.	.	.	4a	.
2C	.	2c	.	2e-i	-i	1g	.
1D	.	1A	.	1d	vi-	.	.
.	.	.	.	.	.	2f#i	.
=42	=42	=42	=42	=42	=42	=42	=42
*M3/1	*	*M3/1	*	*M3/1	*	*M3/1	*
*met(O/3)	*	*met(O/3)	*	*met(O/3)	*	*met(O/3)	*
0G	-vi.	0G	-vi	0d	-vi.	0g	-vi.
1r	.	1r	.	1r	.	1r	.
=43	=43	=43	=43	=43	=43	=43	=43
0.r	.	0g	Et	0.r	.	0g	Et
.	.	1g	be-	.	.	1b-	be-
=44	=44	=44	=44	=44	=44	=44	=44
0.r	.	1f	-ne-	0.r	.	1a	-ne-
.	.	1g	-dic-	.	.	1b-	-dic-
.	.	1e-i	-ta	.	.	1cc	-ta
=45	=45	=45	=45	=45	=45	=45	=45
0G	Et	0d	sint	0G	Et	0dd	sint
1G	be-	1r	.	1B-	be-	1r	.
=46	=46	=46	=46	=46	=46	=46	=46
1F	-ne-	1d	be-	1A	-ne-	0.r	.
1G	-dic-	1d	-a-	1B-	-dic-	.	.
1E-	-ta	1e-i	-ta	1c	-ta	.	.
=47	=47	=47	=47	=47	=47	=47	=47
0D	sint	0f	u-	0d	sint	1dd	be-
.	.	.	.	.	.	1dd	-a-
1r	.	1e-i	-be-	1r	.	1ee-i	-ta
=48	=48	=48	=48	=48	=48	=48	=48
0.r	.	0d	-ra	0.r	.	0ff	u-
.	.	1c	tu-	.	.	1ee-i	-be-
=49	=49	=49	=49	=49	=49	=49	=49
0.r	.	0d	-a,	1d	be-	0dd	-ra
.	.	.	.	1d	-a-	.	.
.	.	1r	.	1e-i	-ta	1cc	tu-
=50	=50	=50	=50	=50	=50	=50	=50
1D	be-	0.r	.	0f	u-	0dd	-a,
1D	-a-	.	.	.	.	.	.
1E-	-ta	.	.	1e-i	-be-	1r	.
=51	=51	=51	=51	=51	=51	=51	=51
0F	u-	0.r	.	0d	-ra	0.r	.
1E-	-be-	.	.	1c	tu-	.	.
=52	=52	=52	=52	=52	=52	=52	=52
0D	-ra	0.r	.	0d	-a,	1ff	que
.	.	.	.	.	.	1ff	lac-
1C	tu-	.	.	1r	.	1ee-i	-ta-
=53	=53	=53	=53	=53	=53	=53	=53
0D	-a,	0.r	.	1A	que	1.dd	-ve-
.	.	.	.	1A	lac-	.	.
.	.	.	.	.	.	2cc	.
1G	que	.	.	1B-	-ta-	1b-	-runt
=54	=54	=54	=54	=54	=54	=54	=54
0F	lac-	1f	que	0c	-ve-	0a	re-
.	.	1f	lac-	.	.	.	.
1C	-ta-	1e	-ta-	1g	-runt	1cc	-gem
=55	=55	=55	=55	=55	=55	=55	=55
0G	-ve-	1.d	-ve-	1.g	re-	1.b-	re-
.	.	2c	.	2f	.	2a	.
1G	-runt	1B-	-runt	1d	-gem	1g	.
=56	=56	=56	=56	=56	=56	=56	=56
1D	re-	1A	re-	1d	re-	1f	.
1E-	-gem	1G	-gem	1g	.	1.b-	.
[1F	re-	[1c	re-	[1f	.	.	.
.	.	.	.	.	.	2a	.
=57	=57	=57	=57	=57	=57	=57	=57
1F]	.	1c]	.	2f]	.	0a	.
.	.	.	.	2e	.	.	.
0G	.	0B-	.	1d	.	.	.
.	.	.	.	1e	.	1g	.
=58	=58	=58	=58	=58	=58	=58	=58
*M2/1	*	*M2/1	*	*M2/1	*	*M2/1	*
*met(C|)	*	*met(C|)	*	*met(C|)	*	*met(C|)	*
0D	-gum	0A	-gum	1d	-gum	0a	-gum
.	.	.	.	2r	.	.	.
.	.	.	.	2d	et	.	.
=59	=59	=59	=59	=59	=59	=59	=59
2r	.	0r	.	2.d	do-	0r	.
2d	et	.	.	.	.	.	.
.	.	.	.	4c	.	.	.
2.d	do-	.	.	2B-	-mi-	.	.
.	.	.	.	2A	-num	.	.
4c	.	.	.	.	.	.	.
=60	=60	=60	=60	=60	=60	=60	=60
2B-	-mi-	1r	.	2G	de-	2r	.
2A	-num	.	.	2F	.	2dd	et
2G	de-	2r	.	2G	.	2.dd	do-
2F	.	2d	et	2D	-um,	.	.
.	.	.	.	.	.	4cc	.
=61	=61	=61	=61	=61	=61	=61	=61
2G	.	2.d	do-	2d	et	2b-	-mi-
2D	-um,	.	.	2.f	do-	2a	-num
.	.	4c	.	.	.	.	.
2r	.	2B-	-mi-	.	.	2g	de-
.	.	.	.	4e	.	.	.
2D	de-	2A	-num	4d	.	2f	.
.	.	.	.	4c	.	.	.
=62	=62	=62	=62	=62	=62	=62	=62
2E-	.	2G	de-	2B-	-mi-	2g	.
2D	.	2F	.	2.d	-num	2a	.
2G	.	2G	.	.	.	2b-	.
.	.	.	.	8cL	.	.	.
.	.	.	.	8B-J	.	.	.
2F	.	2A	.	2f	.	2cc	-um
=63	=63	=63	=63	=63	=63	=63	=63
2G	.	2B-	.	2d	de-	2.g	nos-
2C	-um	2c	-um	2e-i	.	.	.
.	.	.	.	.	.	4a	.
2r	.	2.G	nos-	1d	-um	4b-	.
.	.	.	.	.	.	4cc	.
[2G	nos-	.	.	.	.	[2dd	.
.	.	4A	.	.	.	.	.
=64	=64	=64	=64	=64	=64	=64	=64
4G]	.	4B-	.	2.g	nos-	4dd]	.
4A	.	4c	.	.	.	4cc	.
1G	.	1d	.	.	.	4b-	.
.	.	.	.	4f	.	4a	.
.	.	.	.	2g	.	2b-	.
2A	.	[2c	.	2e	.	[2a	.
=65	=65	=65	=65	=65	=65	=65	=65
2F	.	2c]	.	2f	.	4a]	.
.	.	.	.	.	.	4g	.
2G	.	2B-	.	2.d	.	1g	.
1D	.	1A	.	.	.	.	.
.	.	.	.	4c	.	.	.
.	.	.	.	2A	.	2f#i	.
=66	=66	=66	=66	=66	=66	=66	=66
[0Gl	-trum.	[0Gl	-trum.	1B-	.	[0gl	-trum.
.	.	.	.	1e-i	.	.	.
=67	=67	=67	=67	=67	=67	=67	=67
0G]	.	0G]	.	0dl	-trum.	0g]	.
==	==	==	==	==	==	==	==
*-	*-	*-	*-	*-	*-	*-	*-
!!!RDF**kern: l=long note in original notation
!!!RDF**kern: i=editorial accidental
!!!ENC: Jesse Rodin; Victoria Chang 2011/05/21
!!!END: 2011/05/21/
!!!SMS: Petrucci, Motetti C (1504) - Josquin
!!!SMS: BolC R142 - Brumel, Antoine [fourth lower]
!!!EED: Jesse Rodin
!!!EEV: 2011/08/17/
!!attribution-level@Jos: 2 (provisionally attributable [parentheses checkmark])
!!!ONB: Translated from MusicXML and edited on 2011/08/17/ by Craig Sapp
!!muse2ps: C^@{COM}\n@{SCT}^i2I150v90,90,90,150z18c120l2650
